X: 02072
T: The MAGIC BANJO
C: Bob McQuillen '73
B: Bob's Note Book 1&2 #72
%R: reel
Z: 2019 John Chambers <jc:trillian.mit.edu>
M: C
L: 1/8
K: G	% and Em
D2 \
| GBde dcAc | B2G2 G2FG | A2A2 AB^cA | d2D2 D2GA |
| Bded cAdc | BGFG AGFE | DEFG A^GAc | B2G2 G2 :|
|: BA \
| GFGA BcBA | G2E2 E2^DE | F2Bc BAGF | G2E2 E2GA |
| B2dc BABc | B2E2 E2^DE | F2Bc BAGF | E6 :|
%%begintext align
%% for PETE COLBY
%%endtext

%%sep 1 1 500

%%sep 1 1 500

